img/idea/1_white.svg

<svg width="57" height="57" viewBox="0 0 57 57" fill="none" xmlns="http://www.w3.org/2000/svg">
<path d="M54.8662 28.6901V5.91248C54.8662 3.91169 53.234 2.29053 51.2197 2.29053H5.43902C3.42465 2.29053 1.79248 3.91169 1.79248 5.91248V46.8386C1.79248 48.8394 3.42465 50.4605 5.43902 50.4605H28.3303" stroke="white" stroke-width="3" stroke-miterlimit="10"/>
<path d="M1.79248 11.7617H54.8662" stroke="white" stroke-width="3" stroke-miterlimit="10"/>
<path d="M8.82043 21.3301H25.4112" stroke="white" stroke-width="3" stroke-miterlimit="10"/>
<path d="M30.7582 21.3301H40.2938" stroke="white" stroke-width="3" stroke-miterlimit="10"/>
<path d="M13.6954 31.208H35.5259" stroke="white" stroke-width="3" stroke-miterlimit="10"/>
<path d="M8.82043 40.7686H13.6955" stroke="white" stroke-width="3" stroke-miterlimit="10"/>
<path d="M18.3911 40.7686H27.798" stroke="white" stroke-width="3" stroke-miterlimit="10"/>
<path d="M43.6633 38.7618V35.1902H46.1906V38.7618" fill="white"/>
<path d="M43.6633 38.7618V35.1902H46.1906V38.7618" stroke="white" stroke-width="2" stroke-miterlimit="10"/>
<path d="M46.1906 52.2346V55.8062H43.6633V52.2346" fill="white"/>
<path d="M46.1906 52.2346V55.8062H43.6633V52.2346" stroke="white" stroke-width="2" stroke-miterlimit="10"/>
<path d="M51.7091 44.2432H55.3049V46.7533H51.7091" fill="white"/>
<path d="M51.7091 44.2432H55.3049V46.7533H51.7091" stroke="white" stroke-width="2" stroke-miterlimit="10"/>
<path d="M38.1448 46.7533H34.549V44.2432H38.1448" fill="white"/>
<path d="M38.1448 46.7533H34.549V44.2432H38.1448" stroke="white" stroke-width="2" stroke-miterlimit="10"/>
<path d="M48.8231 39.9451L51.2743 37.3323L53.1229 39.0445L50.6717 41.6573" fill="white"/>
<path d="M48.8231 39.9451L51.2743 37.3323L53.1229 39.0445L50.6717 41.6573" stroke="white" stroke-width="2" stroke-miterlimit="10"/>
<path d="M41.0328 39.9451L38.5817 37.3323L36.733 39.0445L39.1842 41.6573" fill="white"/>
<path d="M41.0328 39.9451L38.5817 37.3323L36.733 39.0445L39.1842 41.6573" stroke="white" stroke-width="2" stroke-miterlimit="10"/>
<path d="M48.8231 51.0533L51.2743 53.6661L53.1229 51.9539L50.6717 49.3411" fill="white"/>
<path d="M48.8231 51.0533L51.2743 53.6661L53.1229 51.9539L50.6717 49.3411" stroke="white" stroke-width="2" stroke-miterlimit="10"/>
<path d="M41.0328 51.0533L38.5817 53.6661L36.733 51.9539L39.1842 49.3411" fill="white"/>
<path d="M41.0328 51.0533L38.5817 53.6661L36.733 51.9539L39.1842 49.3411" stroke="white" stroke-width="2" stroke-miterlimit="10"/>
<path d="M44.8958 38.7617C41.1264 38.7617 38.0707 41.7968 38.0707 45.5408C38.0707 49.2847 41.1264 52.3198 44.8958 52.3198C48.6651 52.3198 51.7208 49.2847 51.7208 45.5408C51.7208 41.7968 48.6651 38.7617 44.8958 38.7617ZM44.8958 49.4145C42.741 49.4145 40.9957 47.681 40.9957 45.5408C40.9957 43.4005 42.741 41.667 44.8958 41.667C47.0505 41.667 48.7958 43.4005 48.7958 45.5408C48.7958 47.681 47.0505 49.4145 44.8958 49.4145Z" fill="white" stroke="white" stroke-width="2" stroke-miterlimit="10"/>
</svg>

<svg width="57" height="57" fill="none" xmlns="http://www.w3.org/2000/svg"><path d="M54.866 28.69V5.912c0-2-1.632-3.621-3.646-3.621H5.439c-2.014 0-3.647 1.62-3.647 3.621V46.84c0 2 1.633 3.622 3.647 3.622H28.33m-26.538-38.7h53.074M8.82 21.33h16.591m5.347 0h9.536m-26.599 9.878h21.83M8.82 40.769h4.875m4.696 0h9.407" stroke="#fff" stroke-width="3" stroke-miterlimit="10"/><path d="M43.663 38.762V35.19h2.528v3.572" fill="#fff"/><path d="M43.663 38.762V35.19h2.528v3.572" stroke="#fff" stroke-width="2" stroke-miterlimit="10"/><path d="M46.19 52.235v3.571h-2.527v-3.571" fill="#fff"/><path d="M46.19 52.235v3.571h-2.527v-3.571" stroke="#fff" stroke-width="2" stroke-miterlimit="10"/><path d="M51.71 44.243h3.595v2.51h-3.596" fill="#fff"/><path d="M51.71 44.243h3.595v2.51h-3.596" stroke="#fff" stroke-width="2" stroke-miterlimit="10"/><path d="M38.145 46.753h-3.596v-2.51h3.596" fill="#fff"/><path d="M38.145 46.753h-3.596v-2.51h3.596" stroke="#fff" stroke-width="2" stroke-miterlimit="10"/><path d="m48.823 39.945 2.451-2.613 1.849 1.712-2.451 2.613" fill="#fff"/><path d="m48.823 39.945 2.451-2.613 1.849 1.712-2.451 2.613" stroke="#fff" stroke-width="2" stroke-miterlimit="10"/><path d="m41.033 39.945-2.451-2.613-1.849 1.712 2.451 2.613" fill="#fff"/><path d="m41.033 39.945-2.451-2.613-1.849 1.712 2.451 2.613" stroke="#fff" stroke-width="2" stroke-miterlimit="10"/><path d="m48.823 51.053 2.451 2.613 1.849-1.712-2.451-2.613" fill="#fff"/><path d="m48.823 51.053 2.451 2.613 1.849-1.712-2.451-2.613" stroke="#fff" stroke-width="2" stroke-miterlimit="10"/><path d="m41.033 51.053-2.451 2.613-1.849-1.712 2.451-2.613" fill="#fff"/><path d="m41.033 51.053-2.451 2.613-1.849-1.712 2.451-2.613" stroke="#fff" stroke-width="2" stroke-miterlimit="10"/><path d="M44.896 38.762c-3.77 0-6.825 3.035-6.825 6.779 0 3.744 3.055 6.779 6.825 6.779s6.825-3.035 6.825-6.78c0-3.743-3.056-6.778-6.825-6.778Zm0 10.652c-2.155 0-3.9-1.733-3.9-3.873s1.745-3.874 3.9-3.874c2.154 0 3.9 1.733 3.9 3.874 0 2.14-1.745 3.873-3.9 3.873Z" fill="#fff" stroke="#fff" stroke-width="2" stroke-miterlimit="10"/></svg>
